X: 3132
T: Mrs MUIR Mc KENZIE
Q: "Reel."
R: Reel.
%R: reel
B: James Kerr "Merry Melodies" v.3 p.16 #132
Z: 2016 John Chambers <jc:trillian.mit.edu>
Q:"Reel."
M: C
L: 1/8
K: C
vE |\
CccG ECC_E | D_BBF D_B,B,D |\
CccG EFGf | ecde c/c/c c ::\
e |\
gece gage |
fd_Bd fgfd |\
[1 gece gage | fdge c/c/c c :|\
[2 cedf egfa | gefd c/c/c c |]

%%sep 1 1 500
%%sep 1 1 500

